packages/ffe-icons/icons/filled/sm/shopping_basket.svg

<svg xmlns="http://www.w3.org/2000/svg" height="20" viewBox="0 -960 960 960" width="20"><path d="M239.385-164.001q-21.568 0-38.707-12.077-17.138-12.077-22.984-32.769L69.617-562.999q-4.615-15.214 5.213-28.107 9.828-12.893 26.325-12.893h219.846l129.23-204.383q6.847-9.077 15.039-12.731 8.192-3.653 16.499-3.653 8.308 0 16.5 3.653 8.192 3.654 14.038 12.731l127.461 204.383h219.077q16.497 0 26.518 12.893 10.02 12.893 5.02 28.107L781.537-208.847q-5.846 20.692-22.985 32.769-17.138 12.077-38.707 12.077h-480.46Zm240.827-168q21.326 0 36.556-15.443 15.231-15.443 15.231-36.768 0-21.326-15.443-36.556-15.443-15.231-36.768-15.231-21.326 0-36.556 15.443-15.231 15.443-15.231 36.768 0 21.326 15.443 36.556 15.443 15.231 36.768 15.231Zm-98.443-271.998h196.847l-98.231-155.462-98.616 155.462Z"/></svg>

<svg xmlns="http://www.w3.org/2000/svg" height="20" viewBox="0 -960 960 960" width="20"><path d="M239.39-164q-21.57 0-38.71-12.08t-22.99-32.77L69.62-563q-4.62-15.21 5.21-28.11Q84.66-604 101.16-604H321l129.23-204.38q6.85-9.08 15.04-12.73 8.19-3.66 16.5-3.66t16.5 3.66q8.19 3.65 14.04 12.73L639.77-604h219.07q16.5 0 26.52 12.89 10.02 12.9 5.02 28.11L781.54-208.85q-5.85 20.69-22.99 32.77Q741.41-164 719.85-164H239.39Zm240.82-168q21.33 0 36.56-15.44Q532-362.89 532-384.21q0-21.33-15.44-36.56Q501.11-436 479.79-436q-21.33 0-36.56 15.44Q428-405.11 428-383.79q0 21.33 15.44 36.56Q458.89-332 480.21-332Zm-98.44-272h196.85l-98.24-155.46L381.77-604Z"/></svg>
